X:1
T: Currie Bridge
C:
R:Reel
Q: 232
K:A
M:4/4
L:1/8
|:A2 Ac eA ce|f2 de fa gf|e2 fe ce Ac|dB cA BE GB|
A2 Ac eA ce|f2 de fa gf|e2 ce dB GB|A2 c2 A2 c2:|
|:B2 Bc dE GB|cB cd e4|^d2 dc Bd fa|ge f^d e=f ^fg|
a2 ae ce ag|fd Ad fa gf|e2 ce dB GB|A2 c2 A2:|
